!!!PDT:	1923
!!!LANG: Non-Tone
!!!LING_GROUP: Siouan
!!!REG: Dakotas
!!!COM: Anon.
!!!OTL: My Lover is Dead
!!!ODT: <1918//
!!!MPN: Behtake [Otter Woman, Mrs. Little Crow]
!!!MLC: Fort Berthold Reservation, North Dakota, United States of America
!! Song was recorded during either the summer of 1912, 1915, or 1918.
!!!AGN: monody
!!!SOCIAL_FUNCTION: Mandan Garden Songs
!!!AMT: irregular
!!!RWG: Transcribed pitches, durations, and meters are only approximate.
!! Drum not recorded.
**kern
*ICvox
*Ifemale
*clefG2
*k[b-e-a-d-g-c-]
*M2/4
*MM56
=1-
8dd-
16.dd-
32b-
4b-
=2
! changed rhythm
32b-
16.a-
16.a-
32f
=3
16dd-
8.b-
(12b-
12a-
12b-)
=4
[4f
8.f]
16f~
=5
2f
=6
8.a-
16b-
16a-
16f
8f
=7
8.d-
16d-
4c
*M3/4
=8
8d-
8B-^
4.d-
8B-
*M2/4
=9
16c
8.c
(12c
12B-
12B-)
=10
2G-
==
*-
!!!CNT: Mandan
!!!TXO: Mandan
!!!OCY: United States
!!!OCL: Frances Densmore
!!!YOR: Frances Densmore, "Mandan and Hidatsa Music",
!!!YOR: Bulletin 80, page 56, No. 14
!!!PPR: Smithsonian Institution, Bureau of American Ethnology
!!!PPR: Government Printing Office
!!!PDT: 1923
!!!PPP: Washington, DC, United States of America
!!!YEC: Electronic Copyright 2000 David Huron
!!!YER: August 2000
!!!YEN: United States of America
!!!ENC: David Huron
!!!RDT: August 16, 2000
!!!EEV: Release 1.0
!!!AIN: tom, vox
